assets/report/china-popculture/cp-collaspiable-expand.svg

<svg fill="none" height="17" viewBox="0 0 17 17" width="17" xmlns="http://www.w3.org/2000/svg"><path d="m1.25391 9.11328h6.58203v6.58202c0 .3613.30273.6641.66406.6641s.66406-.3028.66406-.6641v-6.58202h6.59184c.3515 0 .6543-.30273.6543-.66406s-.3028-.66406-.6543-.66406h-6.59184v-6.5918c0-.351563-.30273-.654298-.66406-.654298s-.66406.302735-.66406.654298v6.5918h-6.58203c-.361332 0-.664066.30273-.664066.66406s.302734.66406.664066.66406z" fill="#6a6a6a"/></svg>

<svg width="17" height="17" viewBox="0 0 17 17" fill="none" xmlns="http://www.w3.org/2000/svg">
<path d="M1.25391 9.11328H7.83594V15.6953C7.83594 16.0566 8.13867 16.3594 8.5 16.3594C8.86133 16.3594 9.16406 16.0566 9.16406 15.6953V9.11328H15.7559C16.1074 9.11328 16.4102 8.81055 16.4102 8.44922C16.4102 8.08789 16.1074 7.78516 15.7559 7.78516H9.16406V1.19336C9.16406 0.841797 8.86133 0.539062 8.5 0.539062C8.13867 0.539062 7.83594 0.841797 7.83594 1.19336V7.78516H1.25391C0.892578 7.78516 0.589844 8.08789 0.589844 8.44922C0.589844 8.81055 0.892578 9.11328 1.25391 9.11328Z" fill="#6A6A6A"/>
</svg>
